Origami/16x16/apps/distributor-logo-linux-mint.svg

<svg xmlns="http://www.w3.org/2000/svg" width="16" height="16" version="1.1">
 <rect style="fill:#7ec242" width="16" height="16" x="-16" y="-16" rx=".8" ry=".8" transform="matrix(0,-1,-1,0,0,0)"/>
 <path style="fill:#ffffff" d="M 2.9980469,3.074211 V 10.96289 C 2.9980469,12.111931 3.9187559,13 5.0625,13 H 7.6 V 12 H 5.0625 C 4.490628,12 3.9508936,11.532018 4.0292969,10.96289 V 3.074211 Z"/>
 <path style="fill:#ffffff" d="M 8,5 C 7.0000002,5 6.0046075,6.0008266 6,6.8457031 V 10 H 7.015625 V 6.8457031 C 7.015625,6.4161612 7.5724276,6 8,6 8.4275724,6 8.984375,6.4161612 8.984375,6.8457031 V 10 H 10 V 6.8457031 C 9.9953925,6.0008266 8.9999998,5 8,5 Z"/>
 <path style="fill:#ffffff" d="M 11,5 C 10,5 9.0046075,6.0008266 9,6.8457031 V 10 h 1.015625 V 6.8457031 C 10.015625,6.4161612 10.572428,6 11,6 c 0.427572,0 0.984375,0.4161612 0.984375,0.8457031 V 10 H 13 V 6.8457031 C 12.995392,6.0008266 12,5 11,5 Z"/>
 <path style="fill:#ffffff" d="m 13.001953,7.674 v 3.28889 C 13.001953,12.111931 12.081244,13 10.9375,13 H 7.4 v -1 h 3.5375 c 0.571872,0 1.111606,-0.467982 1.033203,-1.03711 V 7.674 Z"/>
</svg>

<svg width="16" height="16" version="1.1" xmlns="http://www.w3.org/2000/svg">
 <rect transform="matrix(0,-1,-1,0,0,0)" x="-16" y="-16" width="16" height="16" rx=".8" ry=".8" style="fill:#7ec242"/>
 <path d="m2.9980469 3.074211v7.888679c0 1.149041 0.920709 2.03711 2.0644531 2.03711h2.5375v-1h-2.5375c-0.571872 0-1.1116064-0.467982-1.0332031-1.03711v-7.888679z" style="fill:#ffffff"/>
 <path d="M 8,5 C 7.0000002,5 6.0046075,6.0008266 6,6.8457031 V 10 H 7.015625 V 6.8457031 C 7.015625,6.4161612 7.5724276,6 8,6 8.4275724,6 8.984375,6.4161612 8.984375,6.8457031 V 10 H 10 V 6.8457031 C 9.9953925,6.0008266 8.9999998,5 8,5 Z" style="fill:#ffffff"/>
 <path d="M 11,5 C 10,5 9.0046075,6.0008266 9,6.8457031 V 10 h 1.015625 V 6.8457031 C 10.015625,6.4161612 10.572428,6 11,6 c 0.427572,0 0.984375,0.4161612 0.984375,0.8457031 V 10 H 13 V 6.8457031 C 12.995392,6.0008266 12,5 11,5 Z" style="fill:#ffffff"/>
 <path d="m13.001953 7.674v3.28889c0 1.149041-0.920709 2.03711-2.064453 2.03711h-3.5375v-1h3.5375c0.571872 0 1.111606-0.467982 1.033203-1.03711v-3.28889z" style="fill:#ffffff"/>
</svg>
